storage/app/icons/phosphoricons/fill/gender-female-fill.svg

<svg xmlns="http://www.w3.org/2000/svg" fill="currentColor" viewBox="0 0 256 256"><path d="M128 144a40 40 0 1 1 40-40 40 40 0 0 1-40 40m88-104v176a16 16 0 0 1-16 16H56a16 16 0 0 1-16-16V40a16 16 0 0 1 16-16h144a16 16 0 0 1 16 16m-80 136v-16.58a56 56 0 1 0-16 0V176H96a8 8 0 0 0 0 16h24v16a8 8 0 0 0 16 0v-16h24a8 8 0 0 0 0-16Z"/></svg>

<svg xmlns="http://www.w3.org/2000/svg" viewBox="0 0 256 256" fill="currentColor"><path d="M128,144a40,40,0,1,1,40-40A40,40,0,0,1,128,144ZM216,40V216a16,16,0,0,1-16,16H56a16,16,0,0,1-16-16V40A16,16,0,0,1,56,24H200A16,16,0,0,1,216,40ZM136,176V159.42a56,56,0,1,0-16,0V176H96a8,8,0,0,0,0,16h24v16a8,8,0,0,0,16,0V192h24a8,8,0,0,0,0-16Z"/></svg>
